app/public/dtpr-icons/aggregated.svg

<svg width="36" height="36" viewBox="0 0 36 36" fill="none" xmlns="http://www.w3.org/2000/svg">
<path fill-rule="evenodd" clip-rule="evenodd" d="M22.8887 10C21.1707 10 19.7777 11.393 19.7777 13.111C19.7777 14.829 21.1707 16.222 22.8887 16.222C24.6077 16.222 25.9997 14.829 25.9997 13.111C25.9997 11.393 24.6077 10 22.8887 10ZM22.8887 11.778C23.2447 11.778 23.5797 11.917 23.8317 12.168C24.0837 12.42 24.2227 12.755 24.2227 13.111C24.2227 13.467 24.0837 13.802 23.8317 14.054C23.5797 14.306 23.2447 14.444 22.8887 14.444C22.5337 14.444 22.1987 14.306 21.9467 14.054C21.6947 13.802 21.5557 13.467 21.5557 13.111C21.5557 12.755 21.6947 12.42 21.9467 12.168C22.1987 11.917 22.5337 11.778 22.8887 11.778Z" fill="black"/>
<path fill-rule="evenodd" clip-rule="evenodd" d="M13.1113 10C11.3933 10 10.0003 11.393 10.0003 13.111C10.0003 14.829 11.3933 16.222 13.1113 16.222C14.8293 16.222 16.2223 14.829 16.2223 13.111C16.2223 11.393 14.8293 10 13.1113 10ZM13.1113 11.778C13.4673 11.778 13.8023 11.917 14.0533 12.168C14.3053 12.42 14.4443 12.755 14.4443 13.111C14.4443 13.467 14.3053 13.802 14.0533 14.054C13.8023 14.306 13.4673 14.444 13.1113 14.444C12.7553 14.444 12.4203 14.306 12.1683 14.054C11.9163 13.802 11.7783 13.467 11.7783 13.111C11.7783 12.755 11.9163 12.42 12.1683 12.168C12.4203 11.917 12.7553 11.778 13.1113 11.778Z" fill="black"/>
<path fill-rule="evenodd" clip-rule="evenodd" d="M22.8887 19.7778C21.1707 19.7778 19.7777 21.1708 19.7777 22.8888C19.7777 24.6068 21.1707 25.9998 22.8887 25.9998C24.6077 25.9998 25.9997 24.6068 25.9997 22.8888C25.9997 21.1708 24.6077 19.7778 22.8887 19.7778ZM22.8887 21.5558C23.2447 21.5558 23.5797 21.6948 23.8317 21.9458C24.0837 22.1978 24.2227 22.5328 24.2227 22.8888C24.2227 23.2448 24.0837 23.5798 23.8317 23.8318C23.5797 24.0838 23.2447 24.2218 22.8887 24.2218C22.5337 24.2218 22.1987 24.0838 21.9467 23.8318C21.6947 23.5798 21.5557 23.2448 21.5557 22.8888C21.5557 22.5328 21.6947 22.1978 21.9467 21.9458C22.1987 21.6948 22.5337 21.5558 22.8887 21.5558Z" fill="black"/>
<path fill-rule="evenodd" clip-rule="evenodd" d="M13.1113 19.7778C11.3933 19.7778 10.0003 21.1708 10.0003 22.8888C10.0003 24.6068 11.3933 25.9998 13.1113 25.9998C14.8293 25.9998 16.2223 24.6068 16.2223 22.8888C16.2223 21.1708 14.8293 19.7778 13.1113 19.7778ZM13.1113 21.5558C13.4673 21.5558 13.8023 21.6948 14.0533 21.9458C14.3053 22.1978 14.4443 22.5328 14.4443 22.8888C14.4443 23.2448 14.3053 23.5798 14.0533 23.8318C13.8023 24.0838 13.4673 24.2218 13.1113 24.2218C12.7553 24.2218 12.4203 24.0838 12.1683 23.8318C11.9163 23.5798 11.7783 23.2448 11.7783 22.8888C11.7783 22.5328 11.9163 22.1978 12.1683 21.9458C12.4203 21.6948 12.7553 21.5558 13.1113 21.5558Z" fill="black"/>
<path fill-rule="evenodd" clip-rule="evenodd" d="M18 16.2222C17.018 16.2222 16.222 17.0182 16.222 18.0002C16.222 18.9822 17.018 19.7782 18 19.7782C18.982 19.7782 19.777 18.9822 19.777 18.0002C19.777 17.0182 18.982 16.2222 18 16.2222Z" fill="black"/>
<path fill-rule="evenodd" clip-rule="evenodd" d="M16.8687 17.8745L13.8157 20.9275L15.0727 22.1845L18.1257 19.1315L16.8687 17.8745Z" fill="black"/>
<path fill-rule="evenodd" clip-rule="evenodd" d="M20.9268 13.8159L17.8748 16.8689L19.1318 18.1259L22.1848 15.0729L20.9268 13.8159Z" fill="black"/>
<path fill-rule="evenodd" clip-rule="evenodd" d="M19.1318 17.8745L17.8748 19.1315L20.9268 22.1845L22.1848 20.9275L19.1318 17.8745Z" fill="black"/>
<path fill-rule="evenodd" clip-rule="evenodd" d="M15.0728 13.8159L13.8158 15.0729L16.8688 18.1259L18.1258 16.8689L15.0728 13.8159Z" fill="black"/>
<path fill-rule="evenodd" clip-rule="evenodd" d="M17.1099 27.0669H15.5189C15.1189 27.0669 14.9229 27.5469 15.2079 27.8219L17.6879 30.3109C17.8649 30.4889 18.1409 30.4889 18.3189 30.3109L20.7989 27.8309C21.0739 27.5469 20.8789 27.0669 20.4789 27.0669H18.8879" fill="black"/>
<path fill-rule="evenodd" clip-rule="evenodd" d="M17.111 25.1112V26.8892C17.111 27.3802 17.509 27.7782 18 27.7782C18.491 27.7782 18.889 27.3802 18.889 26.8892V25.1112C18.889 24.6202 18.491 24.2222 18 24.2222C17.509 24.2222 17.111 24.6202 17.111 25.1112Z" fill="black"/>
<path fill-rule="evenodd" clip-rule="evenodd" d="M17.111 6.44469V10.8887C17.111 11.3797 17.509 11.7777 18 11.7777C18.491 11.7777 18.889 11.3797 18.889 10.8887V6.44469C18.889 5.95369 18.491 5.55569 18 5.55569C17.509 5.55569 17.111 5.95369 17.111 6.44469Z" fill="black"/>
<rect x="2" y="2" width="32" height="32" rx="16" stroke="black" stroke-width="2"/>
</svg>

<svg xmlns="http://www.w3.org/2000/svg" width="36" height="36" fill="none"><path fill="#000" fill-rule="evenodd" d="M22.889 10a3.111 3.111 0 1 0 0 6.222 3.111 3.111 0 0 0 0-6.222m0 1.778c.356 0 .69.139.943.39.252.252.39.587.39.943s-.138.691-.39.943-.587.39-.943.39c-.355 0-.69-.138-.942-.39a1.33 1.33 0 0 1-.391-.943 1.328 1.328 0 0 1 1.333-1.333M13.111 10a3.111 3.111 0 1 0 0 6.222 3.111 3.111 0 0 0 0-6.222m0 1.778c.356 0 .691.139.942.39.252.252.391.587.391.943s-.139.691-.39.943a1.32 1.32 0 0 1-.943.39c-.356 0-.69-.138-.943-.39a1.32 1.32 0 0 1-.39-.943 1.329 1.329 0 0 1 1.333-1.333M22.889 19.778a3.111 3.111 0 1 0 0 6.222 3.111 3.111 0 0 0 0-6.222m0 1.778c.356 0 .69.139.943.39.252.252.39.587.39.943s-.138.69-.39.943c-.252.252-.587.39-.943.39-.355 0-.69-.138-.942-.39a1.33 1.33 0 0 1-.391-.943 1.328 1.328 0 0 1 1.333-1.333M13.111 19.778a3.111 3.111 0 1 0 0 6.222 3.111 3.111 0 0 0 0-6.222m0 1.778c.356 0 .691.139.942.39.252.252.391.587.391.943s-.139.69-.39.943a1.32 1.32 0 0 1-.943.39c-.356 0-.69-.138-.943-.39a1.32 1.32 0 0 1-.39-.943 1.329 1.329 0 0 1 1.333-1.333M18 16.222a1.778 1.778 0 1 0 0 3.556 1.778 1.778 0 0 0 0-3.556" clip-rule="evenodd"/><path fill="#000" fill-rule="evenodd" d="m16.869 17.875-3.053 3.052 1.257 1.258 3.053-3.053zM20.927 13.816l-3.052 3.053 1.257 1.257 3.053-3.053z" clip-rule="evenodd"/><path fill="#000" fill-rule="evenodd" d="m19.132 17.875-1.257 1.256 3.052 3.053 1.258-1.257zM15.073 13.816l-1.257 1.257 3.053 3.053 1.257-1.257zM17.11 27.067h-1.591a.44.44 0 0 0-.311.755l2.48 2.489a.44.44 0 0 0 .63 0l2.48-2.48a.45.45 0 0 0-.32-.764h-1.59" clip-rule="evenodd"/><path fill="#000" fill-rule="evenodd" d="M17.111 25.111v1.778a.889.889 0 1 0 1.778 0v-1.778a.889.889 0 1 0-1.778 0M17.111 6.445v4.444a.889.889 0 1 0 1.778 0V6.445a.889.889 0 1 0-1.778 0" clip-rule="evenodd"/><rect width="32" height="32" x="2" y="2" stroke="#000" stroke-width="2" rx="16"/></svg>
